icon-svg/honda-motorcycles.svg

<svg xmlns="http://www.w3.org/2000/svg" viewBox="0 0 24 24"><path fill="#44739e" d="M5.206 17.27s-.123-.4-.341-.617l-2.134-2.135C2.484 14.272 2 13.791 2 13.09s.591-1.201 1.304-1.488 12.325-4.998 13.185-5.358 2.099-.914 2.66-1.181 2.147-1.019 2.199-1.047.082-.044.107-.044.048.022.048.05-.018.068-.024.087-.486 1.448-.866 1.935-.568.694-2.389 1.334-13.985 4.911-14.292 5.031-1.001.334-1.001.848c0 .413.413.734.533.841s3.39 3.172 3.39 3.172Z"/><path fill="#44739e" d="M3.772 13.956s-.298-.276-.338-.316-.127-.19-.127-.297.02-.363.471-.503 10.963-3.6 11.536-3.78 3.963-1.305 4.566-1.575c.128-.055.15-.068.17-.068s.046.013.046.043-.014.054-.025.072-.591 1.209-.931 1.585-.646.64-1.267.795S7.58 12.67 7.518 12.687s-.135.075-.135.152c0 .128.105.138.105.138Zm.215.19.855.796 4.439-.836s-.115-.072-.115-.156.068-.139.149-.155 6.517-1.266 6.917-1.336.928-.187 1.358-.707.848-1.215.862-1.237.019-.034.019-.046-.007-.044-.04-.044-.05.007-.083.02-14.361 3.701-14.361 3.701m12.585-1.171-11.526 2.16.997.922 5.323-.67s-.1-.037-.1-.14.098-.142.155-.152 2.739-.404 3.055-.451.833-.155 1.271-.615.867-.971.883-.991.019-.032.019-.042-.012-.031-.037-.031ZM5.915 18.034c.03-.003.284-.04.284-.04v-.297H4.398v.297s.253.037.283.04.163.033.163.183v.378H3.455v-.378c0-.15.133-.18.163-.183s.284-.04.284-.04v-.297H2.101v.297s.253.037.283.04.163.033.163.183v1.214c0 .15-.133.18-.163.183l-.283.032v.298h1.801v-.298l-.284-.032c-.03-.004-.163-.033-.163-.183v-.379h1.389v.379c0 .15-.133.18-.163.183l-.283.032v.298h1.801v-.298l-.284-.032c-.03-.004-.163-.033-.163-.183v-1.214c0-.15.133-.18.163-.183m2.217-.41c-1.161 0-1.838.421-1.838 1.202s.677 1.202 1.838 1.202 1.839-.422 1.839-1.202-.678-1.202-1.839-1.202m0 1.989c-.227 0-.797.007-.797-.787s.57-.788.797-.788.798-.007.798.788-.572.787-.798.787m4.469-1.614v-.305h1.446v.3s-.252.025-.3.031-.157.055-.157.193v1.728h-1.118c-.054 0-.131-.015-.176-.07s-1.223-1.597-1.223-1.597v1.171c0 .087.086.146.15.155l.305.039v.302-.302.302H10.08v-.301s.252-.025.3-.031.156-.055.156-.193v-1.23c0-.088-.086-.146-.15-.155s-.305-.035-.305-.035v-.307h1.573c.054 0 .131.015.176.07s1.224 1.596 1.224 1.596v-1.171c0-.087-.086-.146-.15-.155s-.303-.035-.303-.035v-.305m3.928 0h-2.33v.307s.242.026.306.035.15.068.15.155v1.23c0 .138-.107.186-.156.193s-.301.031-.301.031v.301h2.331c.755 0 1.393-.351 1.393-1.136s-.719-1.116-1.393-1.116m-.227 1.824h-.774v-1.391h.778c.287 0 .574.097.574.684s-.228.707-.578.707"/><path fill="#44739e" d="M21.697 19.611c-.116-.013-.176-.124-.191-.146s-1.064-1.622-1.105-1.682-.124-.085-.167-.085h-1.74v.305l.415.041c.046.005.094.09.094.119s-.016.056-.026.074-.749 1.225-.787 1.285-.104.088-.151.091l-.296.025v.308h1.435v-.297l-.291-.038c-.065-.012-.083-.085-.083-.103s.01-.047.028-.075l.108-.175h1.385l.115.175c.018.028.028.057.028.075s-.018.092-.083.103l-.33.027v.308H22v-.297s-.187-.025-.303-.038m-2.513-.746.426-.691.456.691Z"/></svg>

<svg xmlns="http://www.w3.org/2000/svg" viewBox="0 0 24 24"><path d="M5.206 17.27C5.206 17.27 5.083 16.87 4.865 16.653S2.978 14.764 2.731 14.518 2 13.791 2 13.09C2 12.389 2.591 11.889 3.304 11.602S15.629 6.604 16.489 6.244 18.588 5.33 19.149 5.063 21.296 4.044 21.348 4.016 21.43 3.972 21.455 3.972 21.503 3.994 21.503 4.022 21.485 4.09 21.479 4.109 20.993 5.557 20.613 6.044 20.045 6.738 18.224 7.378 4.239 12.289 3.932 12.409 2.931 12.743 2.931 13.257C2.931 13.67 3.344 13.991 3.464 14.098S6.854 17.27 6.854 17.27H5.206Z" fill="#44739e"/><path d="M3.772 13.956C3.772 13.956 3.474 13.68 3.434 13.64S3.307 13.45 3.307 13.343 3.327 12.98 3.778 12.84 14.741 9.24 15.314 9.06 19.277 7.755 19.88 7.485C20.008 7.43 20.03 7.417 20.05 7.417S20.096 7.43 20.096 7.46 20.082 7.514 20.071 7.532 19.48 8.741 19.14 9.117 18.494 9.757 17.873 9.912 7.58 12.67 7.518 12.687 7.383 12.762 7.383 12.839C7.383 12.967 7.488 12.977 7.488 12.977L3.772 13.956Z" fill="#44739e"/><path d="M3.987 14.146L4.842 14.942 9.281 14.106C9.281 14.106 9.166 14.034 9.166 13.95S9.234 13.811 9.315 13.795 15.832 12.529 16.232 12.459 17.16 12.272 17.59 11.752 18.438 10.537 18.452 10.515 18.471 10.481 18.471 10.469 18.464 10.425 18.431 10.425 18.381 10.432 18.348 10.445 3.987 14.146 3.987 14.146Z" fill="#44739e"/><path d="M16.572 12.975C16.554 12.979 5.046 15.135 5.046 15.135L6.043 16.057 11.366 15.387C11.366 15.387 11.266 15.35 11.266 15.247S11.364 15.105 11.421 15.095 14.16 14.691 14.476 14.644 15.309 14.489 15.747 14.029 16.614 13.058 16.63 13.038 16.649 13.006 16.649 12.996 16.637 12.965 16.612 12.965C16.605 12.965 16.59 12.971 16.572 12.975Z" fill="#44739e"/><path d="M5.915 18.034C5.945 18.031 6.199 17.994 6.199 17.994V17.697H4.398V17.994C4.398 17.994 4.651 18.031 4.681 18.034S4.844 18.067 4.844 18.217V18.595H3.455V18.217C3.455 18.067 3.588 18.037 3.618 18.034S3.902 17.994 3.902 17.994V17.697H2.101V17.994C2.101 17.994 2.354 18.031 2.384 18.034S2.547 18.067 2.547 18.217V19.431C2.547 19.581 2.414 19.611 2.384 19.614S2.101 19.646 2.101 19.646V19.944H3.902V19.646C3.902 19.646 3.648 19.618 3.618 19.614S3.455 19.581 3.455 19.431V19.052H4.844V19.431C4.844 19.581 4.711 19.611 4.681 19.614S4.398 19.646 4.398 19.646V19.944H6.199V19.646C6.199 19.646 5.945 19.618 5.915 19.614S5.752 19.581 5.752 19.431V18.217C5.752 18.067 5.885 18.037 5.915 18.034Z" fill="#44739e"/><path d="M8.132 17.624C6.971 17.624 6.294 18.045 6.294 18.826S6.971 20.028 8.132 20.028 9.971 19.606 9.971 18.826 9.293 17.624 8.132 17.624ZM8.132 19.613C7.905 19.613 7.335 19.62 7.335 18.826S7.905 18.038 8.132 18.038 8.93 18.031 8.93 18.826 8.358 19.613 8.132 19.613Z" fill="#44739e"/><path d="M12.601 17.999V17.694H14.047V17.994C14.047 17.994 13.795 18.019 13.747 18.025S13.59 18.08 13.59 18.218 13.59 19.859 13.59 19.946C13.59 19.946 12.526 19.946 12.472 19.946S12.341 19.931 12.296 19.876 11.073 18.279 11.073 18.279C11.073 18.417 11.073 19.363 11.073 19.45S11.159 19.596 11.223 19.605 11.528 19.644 11.528 19.644V19.946 19.644 19.946L10.08 19.946V19.645C10.08 19.645 10.332 19.62 10.38 19.614S10.536 19.559 10.536 19.421 10.536 18.279 10.536 18.191 10.45 18.045 10.386 18.036 10.081 18.001 10.081 18.001V17.694C10.081 17.694 11.6 17.694 11.654 17.694S11.785 17.709 11.83 17.764 13.054 19.36 13.054 19.36C13.054 19.222 13.054 18.276 13.054 18.189S12.968 18.043 12.904 18.034 12.601 17.999 12.601 17.999V17.694" fill="#44739e"/><path d="M16.529 17.694C16.093 17.694 14.199 17.694 14.199 17.694V18.001C14.199 18.001 14.441 18.027 14.505 18.036S14.655 18.104 14.655 18.191 14.655 19.283 14.655 19.421 14.548 19.607 14.499 19.614 14.198 19.645 14.198 19.645V19.946L16.529 19.946C17.284 19.946 17.922 19.595 17.922 18.81S17.203 17.694 16.529 17.694ZM16.302 19.518H15.528V18.127C15.528 18.127 16.019 18.127 16.306 18.127S16.88 18.224 16.88 18.811 16.652 19.518 16.302 19.518Z" fill="#44739e"/><path d="M21.697 19.611C21.581 19.598 21.521 19.487 21.506 19.465S20.442 17.843 20.401 17.783 20.277 17.698 20.234 17.698 18.494 17.698 18.494 17.698V18.003C18.494 18.003 18.863 18.039 18.909 18.044S19.003 18.134 19.003 18.163 18.987 18.219 18.977 18.237 18.228 19.462 18.19 19.522 18.086 19.61 18.039 19.613 17.743 19.638 17.743 19.638V19.946H19.178V19.649L18.887 19.611C18.822 19.599 18.804 19.526 18.804 19.508S18.814 19.461 18.832 19.433C18.836 19.427 18.878 19.359 18.94 19.258H20.325C20.392 19.359 20.436 19.427 20.44 19.433 20.458 19.461 20.468 19.49 20.468 19.508S20.45 19.6 20.385 19.611L20.055 19.638V19.946H22V19.649C22 19.649 21.813 19.624 21.697 19.611ZM19.184 18.865C19.39 18.531 19.61 18.174 19.61 18.174S19.845 18.531 20.066 18.865H19.184Z" fill="#44739e"/></svg>
